app/[lang]/(home)/(new-home)/assets/aiagent-appicons/aws.svg

<svg width="32" height="32" viewBox="0 0 32 32" fill="none" xmlns="http://www.w3.org/2000/svg">
<g opacity="0.5" clip-path="url(#clip0_66_365)">
<path d="M9.02091 13.3716C9.02091 13.7667 9.06344 14.0873 9.13798 14.3223C9.22304 14.5574 9.33006 14.8135 9.47869 15.0911C9.53219 15.1766 9.55323 15.2621 9.55323 15.3371C9.55323 15.4437 9.48921 15.5507 9.35109 15.6572L8.6802 16.1059C8.58417 16.1699 8.48859 16.2019 8.40352 16.2019C8.29697 16.2019 8.19041 16.1489 8.08431 16.0528C7.94082 15.8981 7.81249 15.7299 7.70108 15.5507C7.59452 15.3691 7.48797 15.1661 7.37089 14.9205C6.5404 15.9033 5.49725 16.3944 4.24098 16.3944C3.34646 16.3944 2.6335 16.1383 2.1117 15.6252C1.59035 15.113 1.32373 14.4289 1.32373 13.5746C1.32373 12.6664 1.6434 11.9296 2.29279 11.374C2.94219 10.8188 3.80424 10.5407 4.9009 10.5407C5.2631 10.5407 5.63536 10.5727 6.02957 10.6263C6.42332 10.6798 6.82805 10.7653 7.25382 10.8613V10.0816C7.25382 9.26984 7.08324 8.70367 6.75351 8.37257C6.4128 8.04147 5.83795 7.88141 5.01797 7.88141C4.64526 7.88141 4.26202 7.92394 3.86827 8.01998C3.47451 8.11601 3.09082 8.23354 2.71856 8.38309C2.59748 8.4375 2.47298 8.48394 2.34584 8.52211C2.2713 8.54361 2.21779 8.55413 2.17572 8.55413C2.02663 8.55413 1.95163 8.44757 1.95163 8.22303V7.69985C1.95163 7.52881 1.97313 7.40076 2.02663 7.32576C2.07968 7.25122 2.17572 7.17622 2.32481 7.10167C2.69707 6.9096 3.14433 6.74862 3.66613 6.62057C4.18748 6.482 4.74129 6.41798 5.32667 6.41798C6.59345 6.41798 7.51998 6.70609 8.11633 7.28323C8.7017 7.85946 8.99987 8.73568 8.99987 9.91054V13.3716H9.02091ZM4.69876 14.995C5.04999 14.995 5.41218 14.931 5.79542 14.803C6.17866 14.6749 6.51936 14.4399 6.80656 14.1193C6.97714 13.9162 7.10473 13.6921 7.16876 13.4356C7.23278 13.1795 7.27486 12.8694 7.27486 12.5063V12.0581C6.95215 11.9792 6.62526 11.9184 6.29573 11.8761C5.96371 11.8338 5.62936 11.8125 5.29465 11.8121C4.58123 11.8121 4.05988 11.9511 3.70866 12.2392C3.35744 12.5273 3.18732 12.9334 3.18732 13.4676C3.18732 13.9697 3.31491 14.3438 3.58061 14.5999C3.83671 14.867 4.20897 14.995 4.69876 14.995ZM13.2475 16.1489C13.0554 16.1489 12.9283 16.1169 12.8427 16.0419C12.7577 15.9778 12.6831 15.8283 12.6191 15.6257L10.1176 7.36829C10.0535 7.15472 10.0215 7.01615 10.0215 6.94115C10.0215 6.77012 10.107 6.67408 10.2772 6.67408H11.3203C11.5229 6.67408 11.661 6.70609 11.7356 6.78109C11.8206 6.84512 11.8847 6.99466 11.9487 7.19725L13.7368 14.2688L15.3978 7.19771C15.4513 6.98414 15.5149 6.84512 15.6004 6.78109C15.6855 6.71707 15.8345 6.67408 16.0257 6.67408H16.8777C17.0798 6.67408 17.2184 6.70609 17.3035 6.78109C17.3885 6.84512 17.4635 6.99466 17.5056 7.19725L19.1881 14.3543L21.0297 7.19725C21.0937 6.98414 21.1678 6.84512 21.2424 6.78109C21.3279 6.71707 21.4665 6.67408 21.6576 6.67408H22.6477C22.8183 6.67408 22.9139 6.7596 22.9139 6.94115C22.9139 6.99466 22.9034 7.04817 22.8928 7.11219C22.8819 7.17622 22.8608 7.26174 22.8183 7.37927L20.2527 15.6362C20.1887 15.8498 20.1142 15.9883 20.0286 16.0524C19.9436 16.1164 19.8055 16.1594 19.6244 16.1594H18.7088C18.5067 16.1594 18.3681 16.1274 18.283 16.0528C18.198 15.9778 18.123 15.8388 18.0809 15.6252L16.4304 8.73568L14.7909 15.6147C14.7379 15.8283 14.6739 15.9669 14.5888 16.0419C14.5037 16.1169 14.3546 16.1489 14.163 16.1489H13.2475ZM26.9273 16.437C26.374 16.437 25.8206 16.373 25.2878 16.2449C24.756 16.1169 24.3407 15.9778 24.0636 15.8178C23.8935 15.7217 23.7764 15.6147 23.7339 15.5187C23.6924 15.4244 23.6706 15.3226 23.6698 15.2196V14.6749C23.6698 14.4508 23.7549 14.3438 23.9145 14.3438C23.9785 14.3438 24.0425 14.3543 24.1066 14.3758C24.1706 14.3969 24.2662 14.4399 24.3723 14.4824C24.7345 14.6424 25.1282 14.7705 25.5435 14.8565C25.9692 14.9415 26.3849 14.9845 26.8103 14.9845C27.4811 14.9845 28.0029 14.867 28.3651 14.6324C28.7264 14.3969 28.9185 14.0552 28.9185 13.6171C28.9185 13.318 28.8225 13.0725 28.6309 12.8694C28.4392 12.6664 28.0775 12.4853 27.5557 12.3142L26.0118 11.8336C25.2348 11.5875 24.6599 11.2244 24.3087 10.7438C23.9575 10.2741 23.7764 9.75048 23.7764 9.19529C23.7764 8.74666 23.8724 8.35108 24.0636 8.00946C24.2535 7.66609 24.5149 7.36745 24.8301 7.13369C25.1497 6.88765 25.5115 6.70609 25.9372 6.57804C26.3635 6.44999 26.8107 6.39648 27.279 6.39648C27.5132 6.39648 27.7578 6.407 27.9924 6.43902C28.2371 6.47103 28.4607 6.51402 28.6839 6.55655C28.897 6.61005 29.0991 6.66356 29.2908 6.72759C29.4828 6.79161 29.6315 6.85564 29.738 6.91966C29.8871 7.00518 29.9937 7.0907 30.0572 7.18674C30.1213 7.27226 30.1533 7.38979 30.1533 7.53933V8.04147C30.1533 8.26556 30.0682 8.38309 29.9086 8.38309C29.8231 8.38309 29.6845 8.34056 29.5039 8.25504C28.897 7.97744 28.2156 7.83888 27.4597 7.83888C26.8528 7.83888 26.374 7.93491 26.0438 8.13751C25.7141 8.34056 25.5435 8.65016 25.5435 9.08828C25.5435 9.38737 25.65 9.64347 25.8631 9.84652C26.0758 10.0496 26.4696 10.2526 27.0339 10.4342L28.5458 10.9148C29.3123 11.1604 29.8656 11.5025 30.1958 11.9401C30.526 12.3782 30.6851 12.8804 30.6851 13.4356C30.6851 13.8952 30.5896 14.3113 30.4089 14.6749C30.2201 15.0403 29.9549 15.3608 29.6315 15.6147C29.3017 15.8818 28.9075 16.0739 28.4498 16.2129C27.9709 16.3624 27.4706 16.437 26.9273 16.437Z" fill="#678ECA"/>
<path d="M28.9397 21.6289C25.4371 24.2246 20.3485 25.6025 15.9728 25.6025C9.84105 25.6025 4.31569 23.3274 0.142171 19.5458C-0.187557 19.2467 0.110159 18.841 0.50437 19.0761C5.01813 21.7034 10.586 23.2954 16.346 23.2954C20.2314 23.2954 24.5 22.4832 28.4284 20.8167C29.0142 20.5501 29.5146 21.2017 28.9397 21.6289Z" fill="#FF9900"/>
<path d="M30.3981 19.9614C29.9513 19.3848 27.4387 19.6839 26.2995 19.8229C25.9588 19.8654 25.9058 19.5663 26.2145 19.3422C28.2157 17.9319 31.5057 18.338 31.8885 18.8081C32.2717 19.2883 31.7824 22.5892 29.9083 24.1702C29.6211 24.4158 29.3444 24.2877 29.472 23.9671C29.8977 22.9098 30.8453 20.5281 30.3981 19.9614Z" fill="#FF9900"/>
</g>
<defs>
<clipPath id="clip0_66_365">
<rect width="32" height="32" fill="white"/>
</clipPath>
</defs>
</svg>

<svg xmlns="http://www.w3.org/2000/svg" fill="none" viewBox="0 0 32 32">
  <g clip-path="url(#a)" opacity=".5">
    <path
      fill="#678ECA"
      d="M9.02 13.37c0 .4.04.72.12.95.08.24.19.5.34.77.05.09.07.17.07.25 0 .1-.06.21-.2.32l-.67.45c-.1.06-.2.1-.28.1-.1 0-.21-.06-.32-.16a3.3 3.3 0 0 1-.38-.5l-.33-.63a3.93 3.93 0 0 1-3.13 1.47c-.9 0-1.6-.25-2.13-.76a2.75 2.75 0 0 1-.79-2.06c0-.9.32-1.64.97-2.2a3.87 3.87 0 0 1 2.61-.83c.36 0 .74.03 1.13.09.4.05.8.14 1.22.23v-.78c0-.81-.17-1.38-.5-1.7-.34-.34-.91-.5-1.73-.5-.37 0-.76.04-1.15.14a8.44 8.44 0 0 0-1.52.5.65.65 0 0 1-.17.03c-.15 0-.23-.1-.23-.33V7.7c0-.17.02-.3.08-.37a.8.8 0 0 1 .3-.23c.37-.19.81-.35 1.34-.48.52-.14 1.07-.2 1.66-.2 1.26 0 2.19.29 2.79.86.58.58.88 1.46.88 2.63v3.46h.02ZM4.7 15c.35 0 .71-.07 1.1-.2.38-.13.72-.36 1-.68.18-.2.3-.43.37-.68.06-.26.1-.57.1-.93v-.45a8.89 8.89 0 0 0-1.98-.25c-.7 0-1.23.14-1.58.43-.35.29-.52.7-.52 1.23 0 .5.12.87.4 1.13.25.27.62.4 1.1.4Zm8.55 1.15c-.2 0-.32-.03-.4-.1-.1-.07-.17-.22-.23-.42l-2.5-8.26c-.07-.22-.1-.35-.1-.43 0-.17.09-.27.26-.27h1.04c.2 0 .34.04.42.11.08.07.14.21.2.42l1.8 7.07L15.4 7.2c.05-.22.11-.35.2-.42.09-.06.23-.1.43-.1h.85c.2 0 .34.03.42.1.09.07.16.21.2.42l1.69 7.15 1.84-7.15a.92.92 0 0 1 .21-.42.7.7 0 0 1 .42-.1h.99c.17 0 .26.08.26.26 0 .05 0 .1-.02.17 0 .07-.03.15-.07.27l-2.57 8.26c-.06.21-.14.35-.22.41a.68.68 0 0 1-.4.1h-.92c-.2 0-.34-.02-.43-.1-.08-.07-.16-.21-.2-.42l-1.65-6.9-1.64 6.88c-.05.22-.12.36-.2.43-.09.08-.24.1-.43.1h-.91Zm13.68.29a7.03 7.03 0 0 1-2.87-.62c-.17-.1-.28-.2-.33-.3a.76.76 0 0 1-.06-.3v-.55c0-.22.08-.33.24-.33a.6.6 0 0 1 .2.04l.26.1a5.83 5.83 0 0 0 2.44.5c.67 0 1.2-.11 1.56-.35.36-.23.55-.57.55-1.01 0-.3-.1-.55-.29-.75-.2-.2-.55-.38-1.07-.56L26 11.83a3.25 3.25 0 0 1-1.7-1.09 2.55 2.55 0 0 1 .52-3.6c.32-.25.68-.43 1.1-.56A4.64 4.64 0 0 1 28 6.44a8.31 8.31 0 0 1 1.3.29c.2.06.34.13.45.19.15.09.25.17.32.27.06.08.1.2.1.35v.5c0 .23-.1.34-.25.34a1.1 1.1 0 0 1-.4-.12 4.86 4.86 0 0 0-2.05-.42c-.6 0-1.09.1-1.42.3-.33.2-.5.51-.5.95 0 .3.11.55.32.76.22.2.61.4 1.17.58l1.52.48c.76.25 1.32.6 1.65 1.03.33.44.49.94.49 1.5 0 .46-.1.87-.28 1.23-.19.37-.46.7-.78.94-.33.27-.72.46-1.18.6-.48.15-.98.23-1.52.23Z"
    />
    <path
      fill="#F90"
      d="M28.94 21.63c-3.5 2.6-8.6 3.97-12.97 3.97A23.41 23.41 0 0 1 .14 19.55c-.33-.3-.03-.7.36-.47a31.85 31.85 0 0 0 15.85 4.22c3.88 0 8.15-.82 12.08-2.48.58-.27 1.08.38.51.8Z"
    />
    <path
      fill="#F90"
      d="M30.4 19.96c-.45-.58-2.96-.28-4.1-.14-.34.05-.4-.25-.09-.48 2-1.4 5.3-1 5.68-.53.38.48-.1 3.78-1.98 5.36-.29.25-.57.12-.44-.2.43-1.06 1.38-3.44.93-4Z"
    />
  </g>
  <defs>
    <clipPath id="a"><path fill="#fff" d="M0 0h32v32H0z" /></clipPath>
  </defs>
</svg>
